assets/icons/img-credit.svg

<?xml version="1.0" encoding="UTF-8"?>
<svg width="24px" height="24px" viewBox="0 0 24 24" version="1.1" xmlns="http://www.w3.org/2000/svg" xmlns:xlink="http://www.w3.org/1999/xlink">
    <title>VW/Icons/img-credit</title>
    <defs>
        <path d="M14.625,9.07499999 L14.625,9.07499999 C15.15,9.59999999 15.975,9.97499999 16.8,9.97499999 C17.625,9.97499999 18.375,9.59999999 18.975,9.07499999 L18.975,9.07499999 C19.5,8.54999999 19.875,7.72499998 19.875,6.89999998 C19.875,6.07499998 19.5,5.32499997 18.975,4.72499997 L18.975,4.72499997 L18.975,4.72499997 C18.45,4.19999997 17.625,3.82499997 16.8,3.82499997 C15.975,3.82499997 15.225,4.19999997 14.625,4.72499997 L14.625,4.72499997 L14.625,4.72499997 C14.1,5.24999997 13.725,6.07499998 13.725,6.89999998 C13.725,7.72499998 14.025,8.47499999 14.625,9.07499999 L14.625,9.07499999 Z M23.025,-5.00000006e-08 L0.974999954,-5.00000006e-08 C0.449999952,-5.00000006e-08 -5.00000006e-08,0.449999952 -5.00000006e-08,0.974999954 L-5.00000006e-08,23.025 C-5.00000006e-08,23.55 0.449999952,23.9999999 0.974999954,23.9999999 L23.025,23.9999999 C23.55,23.9999999 23.9999999,23.55 23.9999999,23.025 L23.9999999,0.974999954 C23.9999999,0.449999952 23.55,-5.00000006e-08 23.025,-5.00000006e-08 Z M22.05,16.8 L17.25,12.3 L17.025,12.075 L16.725,12.3 L13.125,14.85 L8.32499998,9.22499999 L8.02499998,8.92499999 L7.72499998,9.22499999 L1.87499996,14.25 L1.87499996,1.94999996 L22.05,1.94999996 L22.05,16.8 Z" id="path-1"></path>
    </defs>
    <g id="VW/Icons/img-credit" stroke="none" stroke-width="1" fill="none" fill-rule="evenodd">
        <mask id="mask-2" fill="white">
            <use xlink:href="#path-1"></use>
        </mask>
        <g fill-rule="nonzero"></g>
        <g id="Group" mask="url(#mask-2)" fill="#000000">
            <g id="🎨-color">
                <rect id="Swatch" x="0" y="0" width="24" height="24"></rect>
            </g>
        </g>
    </g>
</svg>

<svg
    xmlns="http://www.w3.org/2000/svg"    
    x="0px"
    y="0px"
    viewBox="0 0 24 24"
    aria-labelledby="chevron down"
    role="presentation"
  >
    <title  lang="en">chevron down</title>

    <g fill="currentColor">
	<path id="path-1_00000034778704849994877620000010590183565258632626_" d="M14.6,9.1L14.6,9.1C15.1,9.6,16,10,16.8,10
		c0.8,0,1.6-0.4,2.2-0.9l0,0c0.5-0.5,0.9-1.3,0.9-2.2S19.5,5.3,19,4.7l0,0l0,0c-0.5-0.5-1.4-0.9-2.2-0.9c-0.8,0-1.6,0.4-2.2,0.9l0,0
		l0,0c-0.5,0.5-0.9,1.3-0.9,2.2S14,8.5,14.6,9.1L14.6,9.1z M23,0H1C0.4,0,0,0.4,0,1v22c0,0.5,0.5,1,1,1h22c0.5,0,1-0.5,1-1V1
		C24,0.4,23.5,0,23,0z M22,16.8l-4.8-4.5L17,12.1l-0.3,0.2l-3.6,2.6L8.3,9.2L8,8.9L7.7,9.2l-5.8,5V1.9H22V16.8z"/>
</g>
</svg>
